X:12
T:Tongs By the Fire
S:Trad, arr. Paddy O'Brien
R:jig
E:12
I:speed 300
M:6/8
K:G
E1/2F1/2|GBd cAF|dge dBG|cec BdB|ABG FED|\
GBd cAF|Gge dBG|cec Bag|fef g2:|\
f|gdB gdB|gfa gdB|fd^c def|gbg faf|\
(4efge def|gdB AGA |BGF G2:|**
